styles/4/Numix/128/places/default-folder-music.svg

<?xml version="1.0" encoding="UTF-8" standalone="no"?>
<!-- Created with Inkscape (http://www.inkscape.org/) -->

<svg
   xmlns:dc="http://purl.org/dc/elements/1.1/"
   xmlns:cc="http://creativecommons.org/ns#"
   xmlns:rdf="http://www.w3.org/1999/02/22-rdf-syntax-ns#"
   xmlns:svg="http://www.w3.org/2000/svg"
   xmlns="http://www.w3.org/2000/svg"
   xmlns:sodipodi="http://sodipodi.sourceforge.net/DTD/sodipodi-0.dtd"
   xmlns:inkscape="http://www.inkscape.org/namespaces/inkscape"
   width="128"
   height="128"
   id="svg2"
   version="1.1"
   inkscape:version="0.91 r"
   sodipodi:docname="default-folder-music.svg"
   inkscape:export-filename="/media/Data/Main/Visuals/Icons/Numix/Desktop/repos/numix-wiki/Gjorgi/Numix-folders/48/New/folder-144.png"
   inkscape:export-xdpi="270"
   inkscape:export-ydpi="270">
  <defs
     id="defs4" />
  <sodipodi:namedview
     id="base"
     pagecolor="#ffffff"
     bordercolor="#666666"
     borderopacity="1.0"
     inkscape:pageopacity="0.0"
     inkscape:pageshadow="2"
     inkscape:zoom="2.2962746"
     inkscape:cx="-3.1442648"
     inkscape:cy="31.703323"
     inkscape:document-units="px"
     inkscape:current-layer="layer1"
     showgrid="true"
     inkscape:window-width="1280"
     inkscape:window-height="998"
     inkscape:window-x="0"
     inkscape:window-y="0"
     inkscape:window-maximized="1"
     showguides="true"
     inkscape:guide-bbox="true">
    <inkscape:grid
       type="xygrid"
       id="grid2985"
       empspacing="5"
       visible="true"
       enabled="true"
       snapvisiblegridlinesonly="true" />
  </sodipodi:namedview>
  <metadata
     id="metadata7">
    <rdf:RDF>
      <cc:Work
         rdf:about="">
        <dc:format>image/svg+xml</dc:format>
        <dc:type
           rdf:resource="http://purl.org/dc/dcmitype/StillImage" />
        <dc:title />
      </cc:Work>
    </rdf:RDF>
  </metadata>
  <g
     inkscape:label="Layer 1"
     inkscape:groupmode="layer"
     id="layer1"
     transform="translate(0,-924.3622)">
    <path
       style="fill:#e9a439;fill-opacity:1;stroke:none"
       d="m 16,944.36222 94,0 c 4,0 6,1.9995 6,5.99842 l 0,13.9964 c 0,2.2154 -1.8948,1.9994 -4,1.9994 l -96,0 c -2.1052,0 -4,-1.7836 -4,-3.999 l 0,-17.99522 z"
       id="path3811"
       inkscape:connector-curvature="0"
       sodipodi:nodetypes="csssssscc" />
    <path
       style="opacity:0.02999998;fill:#000000;fill-opacity:1;stroke:none"
       d="m 12,956.36244 0,9.9998 104,0 0,-9.9998 z"
       id="path3807"
       inkscape:connector-curvature="0" />
    <path
       style="fill:#e9a439;fill-opacity:1;stroke:none"
       d="m 12,952.36224 0,-9.99996 c 0,-4 1.818182,-6 3.636364,-6 l 20.727272,0 c 1.818182,0 3.636364,2 3.636364,6 l 0,9.99996 z"
       id="rect3760"
       inkscape:connector-curvature="0"
       sodipodi:nodetypes="csssscc" />
    <rect
       style="fill:#f5c14e;fill-opacity:1;stroke:none"
       id="rect2990"
       width="120"
       height="80"
       x="4"
       y="960.36218"
       rx="8"
       ry="6.6666665" />
    <path
       style="opacity:0.1;fill:#ffffff;fill-opacity:1;stroke:none"
       d="m 12,960.36224 c -4.432,0 -8,2.99416 -8,6.6875 l 0,4 c 0,-3.69334 3.568,-6.6875 8,-6.6875 l 104,0 c 4.432,0 8,2.99416 8,6.6875 l 0,-4 c 0,-3.69334 -3.568,-6.6875 -8,-6.6875 l -104,0 z"
       id="rect3004"
       inkscape:connector-curvature="0" />
    <path
       style="opacity:0.05;fill:#000000;fill-opacity:1;stroke:none"
       d="m 40,944.36224 0,4 4,0 66,0 c 4,0 6,2.001 6,6 l 0,-4 c 0,-3.99892 -2,-6 -6,-6 l -66,0 z"
       id="path3781"
       inkscape:connector-curvature="0"
       sodipodi:nodetypes="cccscsscc" />
    <path
       style="opacity:0.05;fill:#000000;fill-opacity:1;stroke:none"
       d="m 15.625,936.36224 c -1.818182,0 -3.625,2 -3.625,6 l 0,4 c 0,-4 1.806818,-6 3.625,-6 l 20.75,0 c 1.818182,0 3.625,2 3.625,6 l 0,-4 c 0,-4 -1.806818,-6 -3.625,-6 l -20.75,0 z"
       id="path3801"
       inkscape:connector-curvature="0" />
    <path
       style="opacity:1.0;fill:#c79d41;fill-opacity:1;stroke:none"
       d="M 56 52 C 51.568 52 48 55.463589 48 59.78125 L 48 60.21875 C 48 60.553436 48.020882 60.864156 48.0625 61.1875 C 48.011583 61.448359 48 61.723 48 62 L 48 84 C 43.581722 84 40 87.581722 40 92 C 40 96.418278 43.581722 100 48 100 C 52.418278 100 56 96.418278 56 92 L 56 68 L 80 68 L 80 84 C 75.581722 84 72 87.581722 72 92 C 72 96.418278 75.581722 100 80 100 C 84.418278 100 88 96.418278 88 92 L 88 60.21875 L 88 59.78125 C 88 55.463589 84.432 52 80 52 L 56 52 z "
       transform="translate(0,924.3622)"
       id="path3001-1" />
  </g>
</svg>

<!-- Created with Inkscape (http://www.inkscape.org/) -->
<svg xmlns="http://www.w3.org/2000/svg" viewBox="0 0 128 128">
 <g transform="translate(0,-924.3622)">
  <path d="m 16 944.36 94 0 c 4 0 6 2 6 5.998 l 0 13.996 c 0 2.215 -1.895 1.999 -4 1.999 l -96 0 c -2.105 0 -4 -1.784 -4 -3.999 l 0 -17.995 z" style="fill:#e9a439;fill-opacity:1;stroke:none"/>
  <path d="m 12 956.36 0 10 104 0 0 -10 z" style="fill:#000;opacity:0.03;fill-opacity:1;stroke:none"/>
  <path d="m 12 952.36 0 -10 c 0 -4 1.818 -6 3.636 -6 l 20.727 0 c 1.818 0 3.636 2 3.636 6 l 0 10 z" style="fill:#e9a439;fill-opacity:1;stroke:none"/>
  <rect width="120" height="80" x="4" y="960.36" rx="8" ry="6.667" style="fill:#f5c14e;fill-opacity:1;stroke:none"/>
  <path d="m 12 960.36 c -4.432 0 -8 2.994 -8 6.688 l 0 4 c 0 -3.693 3.568 -6.688 8 -6.688 l 104 0 c 4.432 0 8 2.994 8 6.688 l 0 -4 c 0 -3.693 -3.568 -6.688 -8 -6.688 l -104 0 z" style="fill:#fff;opacity:0.1;fill-opacity:1;stroke:none"/>
  <path d="m 40 944.36 0 4 4 0 66 0 c 4 0 6 2 6 6 l 0 -4 c 0 -3.999 -2 -6 -6 -6 l -66 0 z" style="fill:#000;opacity:0.05;fill-opacity:1;stroke:none"/>
  <path d="m 15.625 936.36 c -1.818 0 -3.625 2 -3.625 6 l 0 4 c 0 -4 1.807 -6 3.625 -6 l 20.75 0 c 1.818 0 3.625 2 3.625 6 l 0 -4 c 0 -4 -1.807 -6 -3.625 -6 l -20.75 0 z" style="fill:#000;opacity:0.05;fill-opacity:1;stroke:none"/>
  <path d="m 56 52 c -4.432 0 -8 3.464 -8 7.781 l 0 0.438 c 0 0.335 0.021 0.645 0.063 0.969 c -0.051 0.261 -0.063 0.535 -0.063 0.813 l 0 22 c -4.418 0 -8 3.582 -8 8 c 0 4.418 3.582 8 8 8 c 4.418 0 8 -3.582 8 -8 l 0 -24 l 24 0 l 0 16 c -4.418 0 -8 3.582 -8 8 c 0 4.418 3.582 8 8 8 c 4.418 0 8 -3.582 8 -8 l 0 -31.781 l 0 -0.438 c 0 -4.318 -3.568 -7.781 -8 -7.781 l -24 0 z" transform="translate(0,924.3622)" style="fill:#c79d41;opacity:1;fill-opacity:1;stroke:none"/>
 </g>
</svg>
